img/illustrations/restrictions.svg

<svg width="145" height="145" viewBox="0 0 145 145" fill="none" xmlns="http://www.w3.org/2000/svg">
<g id="&#208;&#158;&#208;&#179;&#209;&#128;&#208;&#176;&#208;&#189;&#208;&#184;&#209;&#135;&#208;&#181;&#208;&#189;&#208;&#184;&#208;&#181; (&#208;&#178;&#208;&#190;&#208;&#183;&#208;&#190;&#208;&#177;&#208;&#189;&#208;&#190;&#208;&#178;&#208;&#187;&#208;&#181;&#208;&#189;&#208;&#184;&#208;&#181;) &#208;&#180;&#208;&#190;&#209;&#129;&#209;&#130;&#209;&#131;&#208;&#191;&#208;&#176; &#208;&#186; &#209;&#130;&#208;&#190;&#209;&#128;&#208;&#179;&#208;&#190;&#208;&#178;&#208;&#190;&#208;&#185; &#208;&#191;&#208;&#187;&#208;&#190;&#209;&#137;&#208;&#176;&#208;&#180;&#208;&#186;&#208;&#181;">
<path id="Vector" d="M140.6 123.39L5.6001 123.55" stroke="#007B64" stroke-width="2" stroke-miterlimit="10" stroke-linecap="round"/>
<path id="Vector_2" d="M118.01 37H24.4702C20.6153 37 17.4902 40.1251 17.4902 43.98V116.02C17.4902 119.875 20.6153 123 24.4702 123H118.01C121.865 123 124.99 119.875 124.99 116.02V43.98C124.99 40.1251 121.865 37 118.01 37Z" fill="white"/>
<path id="Vector_3" d="M17.2402 112.92H125.24V115.39C125.24 117.512 124.397 119.547 122.897 121.047C121.397 122.547 119.362 123.39 117.24 123.39H25.2402C23.1185 123.39 21.0837 122.547 19.5834 121.047C18.0831 119.547 17.2402 117.512 17.2402 115.39V112.92Z" fill="#EBEBEB"/>
<path id="Vector_4" d="M26.27 49.04L116.21 49.14" stroke="#007B64" stroke-width="2" stroke-miterlimit="10" stroke-linecap="round"/>
<path id="Vector_5" d="M96 84C103.732 84 110 77.732 110 70C110 62.268 103.732 56 96 56C88.268 56 82 62.268 82 70C82 77.732 88.268 84 96 84Z" fill="white" stroke="#FFC463" stroke-width="2" stroke-miterlimit="10"/>
<path id="Vector_6" d="M102 64L90 76" stroke="#007B64" stroke-width="1.5" stroke-miterlimit="10" stroke-linecap="round"/>
<path id="Vector_7" d="M90 64L102 76" stroke="#007B64" stroke-width="1.5" stroke-miterlimit="10" stroke-linecap="round"/>
<path id="Vector_8" d="M46 84C53.732 84 60 77.732 60 70C60 62.268 53.732 56 46 56C38.268 56 32 62.268 32 70C32 77.732 38.268 84 46 84Z" fill="white" stroke="#FFC463" stroke-width="2" stroke-miterlimit="10"/>
<path id="Vector_9" d="M112.68 42.64H92.22C91.6621 42.64 91.21 43.0922 91.21 43.65C91.21 44.2078 91.6621 44.66 92.22 44.66H112.68C113.238 44.66 113.69 44.2078 113.69 43.65C113.69 43.0922 113.238 42.64 112.68 42.64Z" fill="#FFC463"/>
<path id="Vector_10" d="M30.8869 43.6927C30.8878 42.9167 30.2596 42.2869 29.4836 42.286C28.7077 42.285 28.0778 42.9133 28.0769 43.6893C28.0759 44.4652 28.7042 45.095 29.4802 45.096C30.2561 45.0969 30.8859 44.4687 30.8869 43.6927Z" fill="#C4C4C4"/>
<path id="Vector_11" d="M35.1066 43.6979C35.1076 42.9219 34.4793 42.2921 33.7033 42.2911C32.9274 42.2902 32.2976 42.9185 32.2966 43.6944C32.2957 44.4704 32.9239 45.1002 33.6999 45.1011C34.4759 45.1021 35.1057 44.4738 35.1066 43.6979Z" fill="#C4C4C4"/>
<path id="Vector_12" d="M39.3166 43.703C39.3175 42.9271 38.6893 42.2973 37.9133 42.2963C37.1373 42.2954 36.5075 42.9236 36.5066 43.6996C36.5056 44.4755 37.1339 45.1054 37.9099 45.1063C38.6858 45.1072 39.3156 44.479 39.3166 43.703Z" fill="#C4C4C4"/>
<path id="Vector_13" d="M17.2402 91.84V44.69C17.2402 43.6972 17.4358 42.7141 17.8157 41.7969C18.1956 40.8797 18.7525 40.0463 19.4545 39.3443C20.1565 38.6423 20.9899 38.0854 21.9072 37.7055C22.8244 37.3255 23.8074 37.13 24.8002 37.13H117.68C119.684 37.1327 121.606 37.93 123.023 39.3472C124.44 40.7644 125.238 42.6858 125.24 44.69V116C125.24 118.005 124.444 119.928 123.026 121.346C121.608 122.764 119.685 123.56 117.68 123.56H24.8002C23.8071 123.561 22.8234 123.367 21.9056 122.987C20.9878 122.608 20.1539 122.051 19.4516 121.349C18.7493 120.646 18.1925 119.812 17.813 118.895C17.4336 117.977 17.2389 116.993 17.2402 116V102.73" stroke="#007B64" stroke-width="2" stroke-miterlimit="10" stroke-linecap="round"/>
<path id="Vector_14" d="M40 71.2307L44.1538 76.0769" stroke="#007B64" stroke-width="1.5" stroke-miterlimit="10" stroke-linecap="round"/>
<path id="Vector_15" d="M51.3848 65L44.3848 76" stroke="#007B64" stroke-width="1.5" stroke-miterlimit="10" stroke-linecap="round"/>
<path id="Vector_16" d="M32.6401 101.2H59.9201" stroke="#007B64" stroke-width="2" stroke-linecap="round" stroke-linejoin="round"/>
<path id="Vector_17" d="M32.6401 95.59H59.9201" stroke="#007B64" stroke-width="2" stroke-linecap="round" stroke-linejoin="round"/>
<path id="Vector_18" d="M32.6401 89.99H59.9201" stroke="#007B64" stroke-width="2" stroke-linecap="round" stroke-linejoin="round"/>
<path id="Vector_19" d="M32.6401 112.83H59.9201" stroke="#007B64" stroke-width="2" stroke-linecap="round" stroke-linejoin="round"/>
<path id="Vector_20" d="M32.6401 107.22H59.9201" stroke="#007B64" stroke-width="2" stroke-linecap="round" stroke-linejoin="round"/>
<path id="Vector_21" d="M82 101.2H109.28" stroke="#007B64" stroke-width="2" stroke-linecap="round" stroke-linejoin="round"/>
<path id="Vector_22" d="M82 95.5898H109.28" stroke="#007B64" stroke-width="2" stroke-linecap="round" stroke-linejoin="round"/>
<path id="Vector_23" d="M82 89.99H109.28" stroke="#007B64" stroke-width="2" stroke-linecap="round" stroke-linejoin="round"/>
<path id="Vector_24" d="M82 112.83H109.28" stroke="#007B64" stroke-width="2" stroke-linecap="round" stroke-linejoin="round"/>
<path id="Vector_25" d="M82 107.22H109.28" stroke="#007B64" stroke-width="2" stroke-linecap="round" stroke-linejoin="round"/>
</g>
</svg>

<svg width="145" height="145" fill="none" xmlns="http://www.w3.org/2000/svg"><path d="M140.6 123.39l-135 .16" stroke="#007B64" stroke-width="2" stroke-miterlimit="10" stroke-linecap="round"/><path d="M118.01 37H24.47a6.98 6.98 0 00-6.98 6.98v72.04a6.98 6.98 0 006.98 6.98h93.54a6.98 6.98 0 006.98-6.98V43.98a6.98 6.98 0 00-6.98-6.98z" fill="#fff"/><path d="M17.24 112.92h108v2.47a8 8 0 01-8 8h-92a8.001 8.001 0 01-8-8v-2.47z" fill="#EBEBEB"/><path d="M26.27 49.04l89.94.1" stroke="#007B64" stroke-width="2" stroke-miterlimit="10" stroke-linecap="round"/><path d="M96 84c7.732 0 14-6.268 14-14s-6.268-14-14-14-14 6.268-14 14 6.268 14 14 14z" fill="#fff" stroke="#FFC463" stroke-width="2" stroke-miterlimit="10"/><path d="M102 64L90 76m0-12l12 12" stroke="#007B64" stroke-width="1.5" stroke-miterlimit="10" stroke-linecap="round"/><path d="M46 84c7.732 0 14-6.268 14-14s-6.268-14-14-14-14 6.268-14 14 6.268 14 14 14z" fill="#fff" stroke="#FFC463" stroke-width="2" stroke-miterlimit="10"/><path d="M112.68 42.64H92.22a1.01 1.01 0 100 2.02h20.46a1.01 1.01 0 100-2.02z" fill="#FFC463"/><path d="M30.887 43.693a1.405 1.405 0 10-2.81-.004 1.405 1.405 0 002.81.004zm4.22.005a1.405 1.405 0 10-2.81-.004 1.405 1.405 0 002.81.004zm4.21.005a1.405 1.405 0 10-2.81-.003 1.405 1.405 0 002.81.003z" fill="#C4C4C4"/><path d="M17.24 91.84V44.69a7.56 7.56 0 017.56-7.56h92.88a7.57 7.57 0 017.56 7.56V116a7.56 7.56 0 01-7.56 7.56H24.8a7.546 7.546 0 01-6.987-4.665A7.554 7.554 0 0117.24 116v-13.27" stroke="#007B64" stroke-width="2" stroke-miterlimit="10" stroke-linecap="round"/><path d="M40 71.23l4.154 4.847M51.385 65l-7 11" stroke="#007B64" stroke-width="1.5" stroke-miterlimit="10" stroke-linecap="round"/><path d="M32.64 101.2h27.28m-27.28-5.61h27.28m-27.28-5.6h27.28m-27.28 22.84h27.28m-27.28-5.61h27.28M82 101.2h27.28M82 95.59h27.28M82 89.99h27.28M82 112.83h27.28M82 107.22h27.28" stroke="#007B64" stroke-width="2" stroke-linecap="round" stroke-linejoin="round"/></svg>
